X: 1
P: Bottom of the Punch Bowl
C: Athole Colln., arr. T. Traub 11-25-98
M: 4/4
L: 1/8
R: Reel
K: D
|: FE| "D"D2 D2 d3 e|d2 D2 FGAF|"Em"E2 E2 efgf|"A"e2 E2 FGAF|"D"D2 D2 "Bm"d3 e|"A"fedB "D"d3 A|"G"B3 F "A"A3 E|"D"F2 D2 D2 :|
|: de|"D"fedB ABde |"A"fedB "D"d3 A|"Em"B2 e2 e2 de|"A"f2 e2 e2 de|"D"fedB ABde|"A"fedB "Bm"d3 A|"G"BdBF "A"ABAE|"D"F2 D2 D2 :|
